X:15
T:Bulgarian () 4
S:Ian McArdle
R:Other
O:Bulgaria 
N:the turn symbols represent trills
M:7/16
K:Am
"G"(GABc) (dD)d|(dD)(cd) (~B2A)|   \
(GABc) (dD)d|(ed)(cd) (~B2A)::  \
"Am"(GA)(AE) (AcB)|(BG)~A2 (G^FE2)| \
(^FGAD) (AcB)|(BG)~A2 (AeA)|    \
(GA)(AE) (AcB)|(BG)~A2 (G^FE2)| \
(^FGAE) (edc)|(BA)(BG) A3 ::
"A"(^cd)(dA) (~c2A)|(B^c)(cB) (~B2A)|   \
(ed)(dA) (~^c2A)|(B^c)(cA) (~B2A) ::
"A"~e2(de) (^cde)|~e2(de) ~^c2A|       \
~e2(de) (^cde)|~e2(de) c3     ::
"Am"{ag}a2(bg) (~a2g)|(gfed) (~e2e)| \
"Em"(eB){gf}(g2 g)(fd) \
|1 "Am"~e2ee {ga}(a2a) :|2 e4 e3 ||
"G"(~dA2G) (~G2D)|"Dm"{AG}A2(Ac) "G"(~B2D)|  \
(~dA2)G (~G2D)|"Dm"{AG}A2(A=F) "G"G3:|       \
"G"(~d'3d) (d'=c'd')|~b2(c'd') (gab)|   \
(c'd')(d'd) (d'c'd')|~b2(c'd') (~a2g)| \
{gf}(g3d) (d'c'd)|(bd)(c'd') (gab)|    \
(c'd')(d'd) (d'c'd')|~b2(c'd') g3 ||
